Icons/Line/si_Dashboard_customize.svg

<svg width="24" height="24" viewBox="0 0 24 24" fill="none" xmlns="http://www.w3.org/2000/svg">
<path d="M14 17H20" stroke="black" stroke-width="1.5" stroke-miterlimit="10" stroke-linecap="round"/>
<path d="M17 20V14" stroke="black" stroke-width="1.5" stroke-miterlimit="10" stroke-linecap="round"/>
<path d="M8.4 4H5.6C4.71634 4 4 4.71634 4 5.6V8.4C4 9.28366 4.71634 10 5.6 10H8.4C9.28366 10 10 9.28366 10 8.4V5.6C10 4.71634 9.28366 4 8.4 4Z" stroke="black" stroke-width="1.5" stroke-miterlimit="10"/>
<path d="M8.4 14H5.6C4.71634 14 4 14.7163 4 15.6V18.4C4 19.2837 4.71634 20 5.6 20H8.4C9.28366 20 10 19.2837 10 18.4V15.6C10 14.7163 9.28366 14 8.4 14Z" stroke="black" stroke-width="1.5" stroke-miterlimit="10"/>
<path d="M18.4 4H15.6C14.7163 4 14 4.71634 14 5.6V8.4C14 9.28366 14.7163 10 15.6 10H18.4C19.2837 10 20 9.28366 20 8.4V5.6C20 4.71634 19.2837 4 18.4 4Z" stroke="black" stroke-width="1.5" stroke-miterlimit="10"/>
</svg>

<svg width="24" height="24" fill="none" xmlns="http://www.w3.org/2000/svg"><path d="M14 17h6M17 20v-6" stroke="#000" stroke-width="1.5" stroke-miterlimit="10" stroke-linecap="round"/><path d="M8.4 4H5.6A1.6 1.6 0 0 0 4 5.6v2.8A1.6 1.6 0 0 0 5.6 10h2.8A1.6 1.6 0 0 0 10 8.4V5.6A1.6 1.6 0 0 0 8.4 4ZM8.4 14H5.6A1.6 1.6 0 0 0 4 15.6v2.8A1.6 1.6 0 0 0 5.6 20h2.8a1.6 1.6 0 0 0 1.6-1.6v-2.8A1.6 1.6 0 0 0 8.4 14ZM18.4 4h-2.8A1.6 1.6 0 0 0 14 5.6v2.8a1.6 1.6 0 0 0 1.6 1.6h2.8A1.6 1.6 0 0 0 20 8.4V5.6A1.6 1.6 0 0 0 18.4 4Z" stroke="#000" stroke-width="1.5" stroke-miterlimit="10"/></svg>
